src/assets/clair-logo-white.svg

<?xml version="1.0" encoding="UTF-8" standalone="no"?>
<!-- Created with Inkscape (http://www.inkscape.org/) -->

<svg
   xmlns:dc="http://purl.org/dc/elements/1.1/"
   xmlns:cc="http://creativecommons.org/ns#"
   xmlns:rdf="http://www.w3.org/1999/02/22-rdf-syntax-ns#"
   xmlns:svg="http://www.w3.org/2000/svg"
   xmlns="http://www.w3.org/2000/svg"
   xmlns:sodipodi="http://sodipodi.sourceforge.net/DTD/sodipodi-0.dtd"
   xmlns:inkscape="http://www.inkscape.org/namespaces/inkscape"
   width="55.267235mm"
   height="40.287159mm"
   viewBox="0 0 55.267237 40.28716"
   version="1.1"
   id="svg8"
   inkscape:version="0.92.5 (2060ec1f9f, 2020-04-08)"
   sodipodi:docname="clair-cloud.svg">
  <defs
     id="defs2">
    <inkscape:path-effect
       effect="bspline"
       id="path-effect823"
       is_visible="true"
       weight="33.333333"
       steps="2"
       helper_size="0"
       apply_no_weight="true"
       apply_with_weight="true"
       only_selected="false" />
    <inkscape:path-effect
       effect="bspline"
       id="path-effect819"
       is_visible="true"
       weight="33.333333"
       steps="2"
       helper_size="0"
       apply_no_weight="true"
       apply_with_weight="true"
       only_selected="false" />
  </defs>
  <sodipodi:namedview
     id="base"
     pagecolor="#ffffff"
     bordercolor="#666666"
     borderopacity="1.0"
     inkscape:pageopacity="0.0"
     inkscape:pageshadow="2"
     inkscape:zoom="2.1912149"
     inkscape:cx="-20.597421"
     inkscape:cy="94.838622"
     inkscape:document-units="mm"
     inkscape:current-layer="layer1"
     showgrid="false"
     inkscape:window-width="1848"
     inkscape:window-height="1016"
     inkscape:window-x="72"
     inkscape:window-y="27"
     inkscape:window-maximized="1"
     fit-margin-top="0"
     fit-margin-left="0"
     fit-margin-right="0"
     fit-margin-bottom="0"
     inkscape:pagecheckerboard="true">
    <inkscape:grid
       type="xygrid"
       id="grid877"
       originx="-26.037152"
       originy="-31.900007" />
  </sodipodi:namedview>
  <metadata
     id="metadata5">
    <rdf:RDF>
      <cc:Work
         rdf:about="">
        <dc:format>image/svg+xml</dc:format>
        <dc:type
           rdf:resource="http://purl.org/dc/dcmitype/StillImage" />
        <dc:title></dc:title>
      </cc:Work>
    </rdf:RDF>
  </metadata>
  <g
     inkscape:label="Ebene 1"
     inkscape:groupmode="layer"
     id="layer1"
     transform="translate(-43.554159,-89.108888)">
    <path
       style="fill:#ffffff;stroke:#ffffff;stroke-width:0.99999994px;stroke-linecap:butt;stroke-linejoin:miter;stroke-opacity:1"
       d="m 182.67773,125.62109 c -1.88637,-0.0168 -3.82321,0.0867 -5.80273,0.32618 -15.83613,1.9162 -34.3296,12.57413 -40.38477,24.4707 -6.05516,11.89657 0.33013,25.02482 -5.37695,31.1582 -5.70708,6.13338 -23.50709,5.26927 -29.82422,22.0625 -6.317129,16.79324 -1.14865,51.24696 29.08399,65.12695 30.23263,13.88 85.52861,7.18558 119.29101,0.10157 33.76241,-7.08402 45.99003,-14.55745 52.33985,-32.42188 6.34982,-17.86443 6.822,-46.11864 -1.35157,-65.14258 -8.17357,-19.02394 -24.99307,-28.81864 -41.27148,-29.35937 -16.27841,-0.54073 -32.01728,8.17371 -38.64648,9.00586 -6.62921,0.83214 -4.14731,-6.21698 -9.4961,-13.1543 -4.68019,-6.07015 -15.35595,-12.056 -28.56055,-12.17383 z m -17.35742,58.03125 c 2.58943,0 4.44766,1.54315 5.40235,2.7461 0.95468,1.20295 1.43468,2.35742 1.83789,3.55859 0.8064,2.40238 1.16015,5.0749 1.16015,8.03125 0,2.95635 -0.35374,5.63668 -1.16015,8.03906 -0.40321,1.20121 -0.88321,2.34784 -1.83789,3.55078 -0.95469,1.20295 -2.81292,2.7461 -5.40235,2.7461 -2.58942,0 -4.44961,-1.54315 -5.40429,-2.7461 -0.95469,-1.20294 -1.43469,-2.34957 -1.8379,-3.55078 -0.8064,-2.40238 -1.1582,-5.08271 -1.1582,-8.03906 0,-2.95635 0.35179,-5.62887 1.1582,-8.03125 0.40321,-1.20117 0.88321,-2.35564 1.8379,-3.55859 0.95468,-1.20295 2.81487,-2.7461 5.40429,-2.7461 z m 67.31446,0 c 2.58943,0 4.44179,1.54315 5.39648,2.7461 0.95469,1.20295 1.4425,2.35742 1.8457,3.55859 0.80641,2.40238 1.15821,5.0749 1.15821,8.03125 0,2.95635 -0.35179,5.63668 -1.15821,8.03906 -0.4032,1.20121 -0.89101,2.34784 -1.8457,3.55078 -0.95469,1.20295 -2.80705,2.7461 -5.39648,2.7461 -2.58943,0 -4.44766,-1.54315 -5.40235,-2.7461 -0.95468,-1.20294 -1.43663,-2.34957 -1.83984,-3.55078 -0.80641,-2.40238 -1.1582,-5.08271 -1.1582,-8.03906 0,-2.95635 0.35178,-5.62887 1.1582,-8.03125 0.40321,-1.20117 0.88516,-2.35564 1.83984,-3.55859 0.95469,-1.20295 2.81292,-2.7461 5.40235,-2.7461 z m -60.67188,41.75196 c 0.7584,-0.0209 1.50989,0.14905 2.18555,0.49414 0,0 4.22042,2.15342 9.58203,4.30468 5.36161,2.15124 12.05488,4.1366 15.36914,4.13282 3.2735,-0.005 9.90607,-1.99359 15.21289,-4.14063 5.30683,-2.14707 9.47852,-4.28906 9.47852,-4.28906 3.0152,-1.54723 6.59961,0.64224 6.5996,4.03125 2e-5,9.38872 -6.58981,17.56549 -16.1582,21.73828 -9.56838,4.17279 -20.94138,4.17279 -30.50976,0 -9.56839,-4.17279 -16.16603,-12.34956 -16.16602,-21.73828 -0.002,-2.45534 1.95184,-4.4656 4.40625,-4.5332 z"
       transform="matrix(0.26458333,0,0,0.26458333,17.517009,56.004397)"
       id="path821"
       inkscape:connector-curvature="0"
       sodipodi:nodetypes="ccsssssssscscsccsccsccsccssscsccsccsccscccccccsscc" />
  </g>
</svg>

<?xml version="1.0" encoding="UTF-8" standalone="no"?>
<!-- Created with Inkscape (http://www.inkscape.org/) -->

<svg
   xmlns:dc="http://purl.org/dc/elements/1.1/"
   xmlns:cc="http://creativecommons.org/ns#"
   xmlns:rdf="http://www.w3.org/1999/02/22-rdf-syntax-ns#"
   xmlns:svg="http://www.w3.org/2000/svg"
   xmlns="http://www.w3.org/2000/svg"
   xmlns:sodipodi="http://sodipodi.sourceforge.net/DTD/sodipodi-0.dtd"
   xmlns:inkscape="http://www.inkscape.org/namespaces/inkscape"
   width="105.29166mm"
   height="105.29166mm"
   viewBox="0 0 105.29166 105.29166"
   version="1.1"
   id="svg8"
   inkscape:version="0.92.5 (2060ec1f9f, 2020-04-08)"
   sodipodi:docname="clair-logo-white.svg">
  <defs
     id="defs2">
    <inkscape:path-effect
       effect="bspline"
       id="path-effect823"
       is_visible="true"
       weight="33.333333"
       steps="2"
       helper_size="0"
       apply_no_weight="true"
       apply_with_weight="true"
       only_selected="false" />
    <inkscape:path-effect
       effect="bspline"
       id="path-effect819"
       is_visible="true"
       weight="33.333333"
       steps="2"
       helper_size="0"
       apply_no_weight="true"
       apply_with_weight="true"
       only_selected="false" />
  </defs>
  <sodipodi:namedview
     id="base"
     pagecolor="#ffffff"
     bordercolor="#666666"
     borderopacity="1.0"
     inkscape:pageopacity="0.0"
     inkscape:pageshadow="2"
     inkscape:zoom="2.1912149"
     inkscape:cx="159.72874"
     inkscape:cy="197.15086"
     inkscape:document-units="mm"
     inkscape:current-layer="layer1"
     showgrid="false"
     inkscape:window-width="1848"
     inkscape:window-height="1016"
     inkscape:window-x="72"
     inkscape:window-y="27"
     inkscape:window-maximized="1"
     fit-margin-top="0"
     fit-margin-left="0"
     fit-margin-right="0"
     fit-margin-bottom="0">
    <inkscape:grid
       type="xygrid"
       id="grid877" />
  </sodipodi:namedview>
  <metadata
     id="metadata5">
    <rdf:RDF>
      <cc:Work
         rdf:about="">
        <dc:format>image/svg+xml</dc:format>
        <dc:type
           rdf:resource="http://purl.org/dc/dcmitype/StillImage" />
        <dc:title></dc:title>
      </cc:Work>
    </rdf:RDF>
  </metadata>
  <g
     inkscape:label="Ebene 1"
     inkscape:groupmode="layer"
     id="layer1"
     transform="translate(-17.517009,-56.004397)">
    <circle
       style="opacity:0.93000034;fill:none;fill-opacity:1;stroke:#ffffff;stroke-width:5.29166651;stroke-linejoin:miter;stroke-miterlimit:4;stroke-dasharray:none;stroke-opacity:1"
       id="path815"
       cx="70.162842"
       cy="108.65023"
       r="50" />
    <path
       style="fill:#ffffff;stroke:#ffffff;stroke-width:0.99999994px;stroke-linecap:butt;stroke-linejoin:miter;stroke-opacity:1"
       d="M 171.01953 106.79688 C 163.56684 107.09996 156.55181 110.67678 151.24609 118.77734 C 142.75696 131.73824 138.64715 156.27464 129.13672 169.40625 C 119.62628 182.53786 104.71583 184.25937 99.84375 202.3457 C 94.971674 220.43204 100.13942 254.88465 133.71875 268.08008 C 167.29808 281.27551 229.28736 273.21356 262.21289 266.43359 C 295.13843 259.65362 299.00168 254.15646 298.78711 249.26367 C 298.57254 244.37089 294.27964 240.0802 294.92383 235.57422 C 295.56802 231.06823 301.14719 226.34744 301.57617 221.19922 C 302.00515 216.051 297.28324 210.47208 297.71289 205.53711 C 298.14254 200.60214 303.72036 196.31026 303.50586 191.16211 C 303.29136 186.01396 297.28457 180.00535 297.28516 175.01367 C 297.28574 170.02199 303.29212 166.04759 303.66602 159.69531 C 304.03991 153.34303 298.7823 144.61371 279.99414 143.54102 C 261.20598 142.46832 228.88621 149.05191 216.47656 149.35156 C 204.06692 149.65122 211.5673 143.66736 209.7168 134.9043 C 207.8663 126.14124 196.66572 114.59863 184.63281 109.51758 C 180.12047 107.61218 175.49115 106.61503 171.01953 106.79688 z M 165.32031 183.65234 C 167.90964 183.65234 169.768 185.19549 170.72266 186.39844 C 171.67732 187.60135 172.15735 188.75586 172.56055 189.95703 C 173.36695 192.35937 173.7207 195.03197 173.7207 197.98828 C 173.7207 200.94463 173.36695 203.625 172.56055 206.02734 C 172.15735 207.22855 171.67732 208.37521 170.72266 209.57812 C 169.768 210.78104 167.90964 212.32422 165.32031 212.32422 C 162.73099 212.32422 160.87068 210.78104 159.91602 209.57812 C 158.96136 208.37521 158.48132 207.22855 158.07812 206.02734 C 157.27172 203.625 156.91992 200.94463 156.91992 197.98828 C 156.91992 195.03197 157.27172 192.35937 158.07812 189.95703 C 158.48133 188.75586 158.96136 187.60135 159.91602 186.39844 C 160.87068 185.19549 162.73099 183.65234 165.32031 183.65234 z M 232.63477 183.65234 C 235.2242 183.65234 237.07656 185.19549 238.03125 186.39844 C 238.98594 187.60139 239.47375 188.75586 239.87695 189.95703 C 240.68336 192.35941 241.03516 195.03193 241.03516 197.98828 C 241.03516 200.94463 240.68337 203.62496 239.87695 206.02734 C 239.47375 207.22855 238.98594 208.37518 238.03125 209.57812 C 237.07656 210.78107 235.2242 212.32422 232.63477 212.32422 C 230.04534 212.32422 228.18711 210.78107 227.23242 209.57812 C 226.27774 208.37518 225.79579 207.22855 225.39258 206.02734 C 224.58617 203.62496 224.23438 200.94463 224.23438 197.98828 C 224.23438 195.03193 224.58616 192.35941 225.39258 189.95703 C 225.79579 188.75586 226.27774 187.60139 227.23242 186.39844 C 228.18711 185.19549 230.04534 183.65234 232.63477 183.65234 z M 171.96289 225.4043 C 172.72115 225.38366 173.47298 225.55337 174.14844 225.89844 C 174.14844 225.89844 178.36886 228.05186 183.73047 230.20312 C 189.09208 232.35436 195.78535 234.33972 199.09961 234.33594 C 202.37311 234.33068 209.00568 232.34235 214.3125 230.19531 C 219.61933 228.04824 223.79102 225.90625 223.79102 225.90625 C 226.80589 224.35936 230.39002 226.54896 230.39062 229.9375 C 230.39064 239.32622 223.80081 247.50299 214.23242 251.67578 C 204.66404 255.84857 193.29104 255.84857 183.72266 251.67578 C 174.15427 247.50299 167.55663 239.32622 167.55664 229.9375 C 167.55492 227.48217 169.50847 225.47157 171.96289 225.4043 z "
       transform="matrix(0.26458333,0,0,0.26458333,17.517009,56.004397)"
       id="path821" />
  </g>
</svg>
